!!!COM: Hugo Wolf
!!!CNT: Deutscher
!!!TXO: Deutsche 
!!!OTL: Der Soldat II
!!!ODT: 1886/12/14
!!!ONM: No. 6
!!!LYR: Joseph von Eichendorff
!!!ENC: Brian Bice
!!!YOR: 45 Songs on Poems of Goethe and Eichendorff, Dover Publications, 1995
!!NB: Vocal melody and text only encoded.
**kern	**silbe
*clefG2	*
*k[b-e-a-]	*
*M9/8	*
=5	=5
{4e-	{Wa-
8e-	-gen
8.g	musst
16g	du
8g	und
8f#	flu2ch-
8en	-tig
8f#	er-
=6	=6
(2.g	-beu-
4ee-)}	-ten,}
8r	.
=7	=7
{8.a-	{hin-
16a-	-ter
8a-	uns
8cc-	schon
8cc-	durch
8cc-	die
8b-	Nacht
8a-	ho2r'
8b-	ich's
=8	=8
(2.cc-	schrei-
4gg-)}	-ten,}
8r	.
=9	=9
{2.ff	{schwing'
(8ee-	auf
8ff)	|
8ee-	mein
=10	=10
8.ddn	Ross
16ee-	dich
8dd-	nur
4cc	schnell
8cc-	und
8b-	ku2ss'
8cc-	noch
8dd-	im
=11	=11
4.ee-	Flug
4.a-}	mich,}
{[4.gg-	{wild-
=12	=12
4.gg-]	|
(4.b-	scho2-
dd-q	|
8cc-	|
8b-)	|
8a-	-nes
=13	=13
8g-	Kind,
8r	.
8ff	gesch-
8gg-}	-wind,}
8r	.
8r	.
4.r	.
=14	=14
8r	.
{8g-	{denn
8g-	der
8g-	Tod
8g-	ist
8g-	ein
8g-	ra-
8ee--	-scher
8dd-	Ge-
=15	=15
8cc	-sell,
8r	.
8ggn	ge-
8aa-}	-schwind,}
8r	.
8r	.
4.r	.
=16	=16
8r	.
{8a-	{denn
8a-	der
8a-	Tod
8a-	ist
8a-	ein
8a-	ra-
8ff-	-scher
8ee-	Ge-
=17	=17
4.ddn	-sell,
4r	.
8cc	ge-
4dd-	-schwind,
8r	.
=18	=18
4r	.
8ddn	ge-
4ee-	-schwind,
8een	ge-
4ff}	-schwind,}
8r	.
=20	=20
8r	.
{8g	{denn
8g	der
8g	Tod
8g	ist
8g	ein
8g	ra-
8ee-	-scher
8dd	Ge-
=21	=21
8cc}	-sell.}
8r	.
8r	.
4.r	.
4.r	.
*-	*-
